public/assets/imgs/page/homepage2/icon-acquis.svg

<svg width="80" height="80" viewBox="0 0 80 80" fill="none" xmlns="http://www.w3.org/2000/svg">
<circle cx="40" cy="40" r="40" fill="#E4E7EC"/>
<g clip-path="url(#clip0_59_1397)">
<path d="M54.1458 24.0834H41.8124C40.7903 24.0834 39.8099 24.4894 39.0871 25.2122C38.3643 25.935 37.9583 26.9153 37.9583 27.9375V28.4L36.0081 25.0176C35.7617 24.5625 35.4275 24.1607 35.0247 23.8358C34.6219 23.5108 34.1586 23.269 33.6617 23.1244C32.8351 22.8918 31.9545 22.9419 31.1597 23.2667C30.3648 23.5916 29.7012 24.1725 29.2741 24.9174L21.5781 38.2466C21.3081 38.6877 21.1282 39.1778 21.0488 39.6888C20.9694 40.1998 20.9921 40.7214 21.1156 41.2236C21.3274 42.054 21.81 42.7902 22.4871 43.3156C23.1642 43.8411 23.9971 44.1259 24.8541 44.125H29.0166C28.5511 45.7485 28.469 47.4578 28.7768 49.1184C29.0846 50.779 29.7739 52.3454 30.7903 53.6942C31.8067 55.0429 33.1224 56.1372 34.6339 56.8908C36.1453 57.6444 37.8111 58.0366 39.4999 58.0366C41.1888 58.0366 42.8546 57.6444 44.366 56.8908C45.8774 56.1372 47.1932 55.0429 48.2096 53.6942C49.226 52.3454 49.9153 50.779 50.223 49.1184C50.5308 47.4578 50.4488 45.7485 49.9833 44.125H54.1458C54.6519 44.125 55.1531 44.0253 55.6207 43.8316C56.0883 43.6379 56.5132 43.354 56.8711 42.9962C57.229 42.6383 57.5129 42.2134 57.7066 41.7458C57.9002 41.2782 57.9999 40.777 57.9999 40.2708V27.9375C57.9999 27.4314 57.9002 26.9302 57.7066 26.4626C57.5129 25.995 57.229 25.5701 56.8711 25.2122C56.5132 24.8543 56.0883 24.5704 55.6207 24.3767C55.1531 24.1831 54.6519 24.0834 54.1458 24.0834ZM26.1954 39.5L32.6118 28.3862L37.2522 36.4167C35.1294 36.8656 33.1896 37.9395 31.6822 39.5H26.1954ZM39.4999 53.375C38.2577 53.375 37.0434 53.0066 36.0105 52.3165C34.9777 51.6264 34.1727 50.6454 33.6973 49.4978C33.2219 48.3501 33.0975 47.0873 33.3399 45.8689C33.5822 44.6506 34.1804 43.5315 35.0588 42.6531C35.9372 41.7747 37.0563 41.1765 38.2746 40.9342C39.493 40.6919 40.7558 40.8162 41.9035 41.2916C43.0511 41.767 44.0321 42.572 44.7222 43.6049C45.4123 44.6377 45.7807 45.852 45.7807 47.0943C45.7787 48.7594 45.1163 50.3557 43.9389 51.5332C42.7614 52.7106 41.1651 53.373 39.4999 53.375ZM53.3749 39.5H47.3177C45.9964 38.1725 44.3713 37.1872 42.5833 36.6294V28.7084H53.3749V39.5Z" fill="#101828"/>
</g>
<defs>
<clipPath id="clip0_59_1397">
<rect width="37" height="37" fill="white" transform="translate(21 21)"/>
</clipPath>
</defs>
</svg>

<svg xmlns="http://www.w3.org/2000/svg" width="80" height="80" fill="none"><circle cx="40" cy="40" r="40" fill="#E4E7EC"/><g clip-path="url(#a)"><path fill="#101828" d="M54.146 24.083H41.812a3.854 3.854 0 0 0-3.854 3.855v.462l-1.95-3.382a3.91 3.91 0 0 0-2.346-1.894 3.854 3.854 0 0 0-4.388 1.793l-7.696 13.33a3.913 3.913 0 0 0-.462 2.977 3.853 3.853 0 0 0 3.738 2.901h4.163a10.905 10.905 0 1 0 20.966 0h4.163A3.854 3.854 0 0 0 58 40.271V27.937a3.856 3.856 0 0 0-3.854-3.854ZM26.196 39.5l6.416-11.114 4.64 8.03a10.872 10.872 0 0 0-5.57 3.084h-5.487ZM39.5 53.375a6.281 6.281 0 1 1 6.28-6.28 6.289 6.289 0 0 1-6.28 6.28ZM53.375 39.5h-6.057a11.52 11.52 0 0 0-4.735-2.87v-7.922h10.792V39.5Z"/></g><defs><clipPath id="a"><path fill="#fff" d="M21 21h37v37H21z"/></clipPath></defs></svg>
